public/svg/Duo_Excited.svg

<?xml version="1.0" encoding="UTF-8" standalone="no"?>
<svg
        viewBox="0 0 162 220"
        fill="none"
        version="1.1"
        id="svg28"
        width="100%"
        height="100%"
        xmlns="http://www.w3.org/2000/svg">
  <defs
     id="defs28" />
  <path
     d="M 17.2373,62.1019 C 15.0718,48.2687 28.302,36.9022 41.8938,40.2652 c 12.6743,3.1361 26.1206,5.7189 32.8671,4.6628 6.7465,-1.0562 18.7603,-7.6246 29.8701,-14.4838 11.914,-7.3558 27.984,-0.5762 30.15,13.257 l 9.664,61.7328 c 5.081,32.459 -17.113,62.891 -49.5716,67.972 -32.4588,5.081 -62.891,-17.113 -67.9722,-49.572 z"
     fill="#58cc02"
     id="path1" />
  <path
     fill-rule="evenodd"
     clip-rule="evenodd"
     d="m 80.3558,60.8672 c 7.4806,5.5505 18.8606,3.769 25.0222,-3.917 6.161,-7.686 4.9,38.3773 4.882,38.2622 -0.008,-0.055 -3.853,0.5307 -11.5331,1.757 -2.0589,0.3287 -5.7675,0.9254 -11.1258,1.7902 C 77.7839,69.7976 75.3688,57.1668 80.3558,60.8672 Z"
     fill="#89e219"
     id="path2" />
  <path
     d="m 118.016,37.6564 -14.379,22.1131 c -0.771,1.1853 -0.165,2.7788 1.196,3.147 6.54,1.7692 13.593,-0.9105 17.392,-6.7528 3.799,-5.8422 3.399,-13.3939 -0.854,-18.6797 -0.886,-1.1002 -2.584,-1.0129 -3.355,0.1724 z"
     fill="#8ee000"
     id="path3" />
  <path
     d="m 128.883,40.6929 -14.379,22.1132 c -0.771,1.1853 -0.165,2.7787 1.196,3.147 6.54,1.7692 13.593,-0.9106 17.392,-6.7528 3.799,-5.8423 3.399,-13.3939 -0.854,-18.6798 -0.885,-1.1001 -2.584,-1.0128 -3.355,0.1724 z"
     fill="#8ee000"
     id="path4" />
  <path
     d="m 62.6647,46.2676 19.8478,16.333 c 1.0638,0.8755 0.9632,2.5274 -0.1987,3.2625 -5.5827,3.5316 -12.9397,3.0887 -18.1834,-1.2264 -5.2438,-4.3152 -7.0701,-11.4293 -4.6438,-17.5583 0.505,-1.2757 2.1142,-1.6862 3.1781,-0.8108 z"
     fill="#89e219"
     id="path5" />
  <path
     d="m 53.0679,52.5788 18.6714,15.3649 c 1.0008,0.8236 0.9061,2.3776 -0.187,3.0691 -5.2518,3.3223 -12.1727,2.9056 -17.1056,-1.1538 -4.933,-4.0593 -6.651,-10.7518 -4.3685,-16.5176 0.475,-1.2 1.9889,-1.5862 2.9897,-0.7626 z"
     fill="#89e219"
     id="path6" />
  <path
     d="M 42.7065,83.9033 C 40.6681,70.8821 49.5714,58.6738 62.5927,56.6354 75.614,54.597 87.8222,63.5004 89.8606,76.5216 l 1.8187,11.6177 c 2.0384,13.0217 -6.865,25.2297 -19.8862,27.2677 -13.0213,2.039 -25.2296,-6.865 -27.268,-19.886 z"
     fill="#89e219"
     id="path7" />
  <rect
     x="36.153835"
     y="74.078392"
     width="42.5406"
     height="42.5406"
     rx="21.2703"
     transform="rotate(-8.89709)"
     fill="#ffffff"
     id="rect7" />
  <path
     fill-rule="evenodd"
     clip-rule="evenodd"
     d="m 136.662,55.7154 c -3.856,-5.7042 -10.78,-8.9878 -18.033,-7.8525 -10.001,1.5657 -16.84,10.9431 -15.274,20.9449 l 3.53,22.552 c 1.566,10.0022 10.943,16.8402 20.945,15.2752 7.252,-1.136 12.842,-6.378 14.77,-12.9878 z"
     fill="#89e219"
     id="path8" />
  <rect
     x="90.451408"
     y="74.078056"
     width="35.9692"
     height="42.5406"
     rx="17.9846"
     transform="rotate(-8.89709)"
     fill="#ffffff"
     id="rect8" />
  <rect
     x="43.093334"
     y="77.635864"
     width="32.977402"
     height="33.389702"
     rx="16.488701"
     transform="rotate(-8.89709)"
     fill="#4b4b4b"
     id="rect9" />
  <rect
     x="91.640457"
     y="77.170364"
     width="29.8825"
     height="32.527699"
     rx="14.9413"
     transform="rotate(-8.89709)"
     fill="#4b4b4b"
     id="rect10" />
  <rect
     x="75.235458"
     y="101.74688"
     width="16.255301"
     height="34.5858"
     rx="8.1276703"
     transform="rotate(-8.89709)"
     fill="#f49000"
     id="rect11" />
  <path
     d="m 94.8608,97.4037 c -0.7994,-3.2648 1.3657,-6.5146 4.6865,-7.0345 3.1317,-0.4902 6.0667,1.6509 6.5577,4.7822 l 2.788,17.8106 c 0.424,2.707 -1.422,5.247 -4.128,5.681 -2.557,0.409 -5.001,-1.213 -5.6169,-3.729 z"
     fill="#b06800"
     id="path11" />
  <path
     d="m 111.063,94.7077 c 0.124,0.2996 0.005,0.6406 -0.269,0.8135 l -3.956,2.4972 -17.988,0.7991 c -0.4028,0.0179 -0.7372,-0.3118 -0.6985,-0.7131 0.5105,-5.2916 4.5388,-9.7737 10.0336,-10.6339 5.5609,-0.8706 10.8259,2.2506 12.8779,7.2372 z"
     fill="#ffc200"
     id="path12" />
  <path
     d="m 96.7058,91.2025 c 0.7126,-0.4498 2.7773,-1.0146 4.4422,-0.6953"
     stroke="#ffde00"
     stroke-width="3.45858"
     stroke-linecap="round"
     stroke-linejoin="round"
     id="path13" />
  <rect
     x="123.98135"
     y="70.130714"
     width="2.42101"
     height="5.87959"
     transform="rotate(-8.89709)"
     fill="#89e219"
     id="rect13" />
  <path
     d="m 83.8576,86.1186 c -0.331,1.4603 -1.763,4.6114 -4.842,5.5337"
     stroke="#ffffff"
     stroke-width="6.5713"
     stroke-linecap="round"
     stroke-linejoin="round"
     id="path14" />
  <path
     d="m 128.471,78.1638 c -0.331,1.4603 -1.763,4.6115 -4.842,5.5337"
     stroke="#ffffff"
     stroke-width="6.5713"
     stroke-linecap="round"
     stroke-linejoin="round"
     id="path15" />
  <circle
     cx="129.685"
     cy="135.05701"
     r="22.6537"
     fill="#58cc02"
     id="circle15" />
  <path
     fill-rule="evenodd"
     clip-rule="evenodd"
     d="m 126.814,157.605 c -1.254,1.203 -2.562,2.353 -3.922,3.446 -2.772,-1.452 -5.339,-3.07 -7.668,-4.802 -5.688,-4.227 -10.063,-9.206 -12.522,-14.224 -2.449,-5 -3.1164,-10.341 -0.761,-14.897 0.664,-1.286 1.617,-2.268 2.832,-2.891 1.182,-0.606 2.459,-0.795 3.677,-0.772 2.357,0.043 4.986,0.894 7.43,1.818 1.178,0.445 2.271,0.889 3.346,1.325 1.384,0.562 2.739,1.112 4.207,1.638 2.49,0.892 4.65,1.451 6.419,1.451 3.903,0 7.263,-1.132 10.012,-3.662 2.021,-1.861 3.823,-4.581 5.229,-8.423 -0.199,4.046 -0.81,8.01 -1.798,11.843 -0.05,0.048 -0.101,0.095 -0.152,0.142 -3.78,3.48 -8.374,4.942 -13.291,4.942 -2.641,0 -5.453,-0.804 -8.052,-1.735 -1.456,-0.521 -3.074,-1.175 -4.605,-1.793 v 0 c -1.082,-0.437 -2.12,-0.856 -3.027,-1.199 -2.44,-0.923 -4.371,-1.48 -5.806,-1.506 -0.678,-0.012 -1.106,0.099 -1.38,0.24 -0.242,0.124 -0.498,0.337 -0.74,0.805 -1.406,2.72 -1.242,6.357 0.809,10.544 2.041,4.168 5.835,8.584 11.061,12.468 2.592,1.926 5.511,3.703 8.702,5.242 z"
     fill="#43c000"
     id="path16" />
  <path
     d="m 93.8854,142.321 -3.6315,-5.88 2.5939,-8.819 3.6316,-1.384 h 6.0526 c 0.415,0 2.133,1.268 2.94,1.903 v 5.36 l -1.384,5.188 -3.458,6.572 z"
     fill="#58cc02"
     id="path17" />
  <path
     d="m 61.0288,128.239 c 2.6892,1.61 8.6741,3.878 17.4935,3.878 8.8194,0 22.1347,-10.894 25.7607,-3.878 5.066,9.801 -6.5292,25.772 -25.7607,33.332 -9.4295,3.553 -19.1652,1.481 -22.8543,0"
     stroke="#43c000"
     stroke-width="4.84201"
     stroke-linecap="round"
     stroke-linejoin="round"
     id="path18" />
  <path
     d="m 145.075,118.456 c 1.902,6.572 0.346,8.993 -1.902,11.068 l -0.173,-1.729 0.692,-4.497 c 0.23,-0.922 0.83,-3.181 1.383,-4.842 z"
     fill="#43c000"
     id="path19" />
  <circle
     cx="76.937599"
     cy="76.434799"
     r="4.49616"
     fill="#ffffff"
     id="circle19" />
  <circle
     cx="123.975"
     cy="68.480003"
     r="4.1503"
     fill="#ffffff"
     id="circle20" />
  <path
     fill-rule="evenodd"
     clip-rule="evenodd"
     d="m 56.9734,85.04 c -0.5647,-6.4722 2.6976,-12.5109 8.0271,-15.703 2.9704,1.4189 5.0225,4.4511 5.0225,7.9625 0,4.8708 -3.9486,8.8194 -8.8194,8.8194 -1.5328,0 -2.9744,-0.3911 -4.2302,-1.0789 z"
     fill="#ffffff"
     id="path20" />
  <path
     fill-rule="evenodd"
     clip-rule="evenodd"
     d="m 104.52,74.2872 c -0.137,-5.8871 3.221,-11.2437 8.39,-13.7615 2.852,1.2621 4.841,4.1167 4.841,7.436 0,4.4888 -3.639,8.1277 -8.127,8.1277 -1.934,0 -3.709,-0.675 -5.104,-1.8022 z"
     fill="#ffffff"
     id="path21" />
  <path
     fill-rule="evenodd"
     clip-rule="evenodd"
     d="m 107.527,117.22 c -0.719,0.732 -1.669,1.248 -2.759,1.423 -2.558,0.409 -5.0012,-1.213 -5.6171,-3.729 l -1.7017,-6.95 c 5.0678,0.504 9.1598,4.322 10.0778,9.256 z"
     fill="#ffb8d1"
     id="path22" />
  <path
     d="m 51.7773,97.5378 29.3102,8.8352 -0.4108,1.363 c -1.1578,3.841 -5.2097,6.016 -9.0502,4.858 l -15.4024,-4.643 c -3.8405,-1.158 -6.0153,-5.21 -4.8576,-9.0503 z"
     fill="#89e219"
     id="path23" />
  <rect
     opacity="0.62"
     x="76.131432"
     y="133.43805"
     width="9.2533398"
     height="9.2533398"
     rx="1.38343"
     transform="rotate(-45)"
     fill="#14c3fb"
     id="rect23" />
  <rect
     opacity="0.5"
     x="51.245804"
     y="60.49913"
     width="9.2533398"
     height="9.2533398"
     rx="1.38343"
     transform="rotate(-45)"
     fill="#ff68d5"
     id="rect24" />
  <rect
     opacity="0.5"
     x="-10.140322"
     y="13.786333"
     width="16.894501"
     height="16.894501"
     rx="4.49616"
     transform="rotate(-45)"
     fill="#14c3fb"
     id="rect25" />
  <rect
     opacity="0.68"
     y="32.413845"
     width="8.6918001"
     height="8.6918001"
     rx="1.38343"
     transform="rotate(-45)"
     fill="#ffc200"
     id="rect26"
     x="-32.413845" />
  <rect
     opacity="0.5"
     x="80.610664"
     y="116.76546"
     width="6.2986999"
     height="6.2986999"
     rx="1.38343"
     transform="rotate(-45)"
     fill="#ffc200"
     id="rect27" />
  <path
     d="m 89.9414,189.377 c -2.3944,6.058 -3.8597,9.76 -7.8223,13.282"
     stroke="#f49000"
     stroke-width="14.6103"
     stroke-linecap="round"
     id="path27" />
  <path
     d="m 90.9063,189.377 c 2.3944,6.058 3.8597,9.76 7.8223,13.282"
     stroke="#f49000"
     stroke-width="14.6103"
     stroke-linecap="round"
     id="path28" />
</svg>

<svg viewBox="0 0 162 220" fill="none" xmlns="http://www.w3.org/2000/svg"><rect opacity="0.3" x="63" y="210" width="53" height="10" rx="5" fill="#AFAFAF"/><path d="M17.2373 62.1019C15.0718 48.2687 28.302 36.9022 41.8938 40.2652C54.5681 43.4013 68.0144 45.9841 74.7609 44.928C81.5074 43.8718 93.5212 37.3034 104.631 30.4442C116.545 23.0884 132.615 29.868 134.781 43.7012L144.445 105.434C149.526 137.893 127.332 168.325 94.8734 173.406C62.4146 178.487 31.9824 156.293 26.9012 123.834L17.2373 62.1019Z" fill="#58CC02"/><path fill-rule="evenodd" clip-rule="evenodd" d="M80.3558 60.8672C87.8364 66.4177 99.2164 64.6362 105.378 56.9502C111.539 49.2642 110.278 95.3275 110.26 95.2124C110.252 95.1574 106.407 95.7431 98.7269 96.9694C96.668 97.2981 92.9594 97.8948 87.6011 98.7596C77.7839 69.7976 75.3688 57.1668 80.3558 60.8672Z" fill="#89E219"/><path d="M118.016 37.6564L103.637 59.7695C102.866 60.9548 103.472 62.5483 104.833 62.9165C111.373 64.6857 118.426 62.006 122.225 56.1637C126.024 50.3215 125.624 42.7698 121.371 37.484C120.485 36.3838 118.787 36.4711 118.016 37.6564Z" fill="#8EE000"/><path d="M128.883 40.6929L114.504 62.8061C113.733 63.9914 114.339 65.5848 115.7 65.9531C122.24 67.7223 129.293 65.0425 133.092 59.2003C136.891 53.358 136.491 45.8064 132.238 40.5205C131.353 39.4204 129.654 39.5077 128.883 40.6929Z" fill="#8EE000"/><path d="M62.6647 46.2676L82.5125 62.6006C83.5763 63.4761 83.4757 65.128 82.3138 65.8631C76.7311 69.3947 69.3741 68.9518 64.1304 64.6367C58.8866 60.3215 57.0603 53.2074 59.4866 47.0784C59.9916 45.8027 61.6008 45.3922 62.6647 46.2676Z" fill="#89E219"/><path d="M53.0679 52.5788L71.7393 67.9437C72.7401 68.7673 72.6454 70.3213 71.5523 71.0128C66.3005 74.3351 59.3796 73.9184 54.4467 69.859C49.5137 65.7997 47.7957 59.1072 50.0782 53.3414C50.5532 52.1414 52.0671 51.7552 53.0679 52.5788Z" fill="#89E219"/><path d="M42.7065 83.9033C40.6681 70.8821 49.5714 58.6738 62.5927 56.6354C75.614 54.597 87.8222 63.5004 89.8606 76.5216L91.6793 88.1393C93.7177 101.161 84.8143 113.369 71.7931 115.407C58.7718 117.446 46.5635 108.542 44.5251 95.521L42.7065 83.9033Z" fill="#89E219"/><rect x="47.1758" y="67.5955" width="42.5406" height="42.5406" rx="21.2703" transform="rotate(-8.89709 47.1758 67.5955)" fill="white"/><path fill-rule="evenodd" clip-rule="evenodd" d="M136.662 55.7154C132.806 50.0112 125.882 46.7276 118.629 47.8629C108.628 49.4286 101.789 58.806 103.355 68.8078L106.885 91.3598C108.451 101.362 117.828 108.2 127.83 106.635C135.082 105.499 140.672 100.257 142.6 93.6472L136.662 55.7154Z" fill="#89E219"/><rect x="100.82" y="59.1975" width="35.9692" height="42.5406" rx="17.9846" transform="rotate(-8.89709 100.82 59.1975)" fill="white"/><rect x="54.582" y="70.0369" width="32.9774" height="33.3897" rx="16.4887" transform="rotate(-8.89709 54.582 70.0369)" fill="#4B4B4B"/><rect x="102.473" y="62.0687" width="29.8825" height="32.5277" rx="14.9413" transform="rotate(-8.89709 102.473 62.0687)" fill="#4B4B4B"/><rect x="90.0664" y="88.8867" width="16.2553" height="34.5858" rx="8.12767" transform="rotate(-8.89709 90.0664 88.8867)" fill="#F49000"/><path d="M94.8608 97.4037C94.0614 94.1389 96.2265 90.8891 99.5473 90.3692C102.679 89.879 105.614 92.0201 106.105 95.1514L108.893 112.962C109.317 115.669 107.471 118.209 104.765 118.643C102.208 119.052 99.764 117.43 99.1481 114.914L94.8608 97.4037Z" fill="#B06800"/><path d="M111.063 94.7077C111.187 95.0073 111.068 95.3483 110.794 95.5212L106.838 98.0184L88.85 98.8175C88.4472 98.8354 88.1128 98.5057 88.1515 98.1044C88.662 92.8128 92.6903 88.3307 98.1851 87.4705C103.746 86.5999 109.011 89.7211 111.063 94.7077Z" fill="#FFC200"/><path d="M96.7058 91.2025C97.4184 90.7527 99.4831 90.1879 101.148 90.5072" stroke="#FFDE00" stroke-width="3.45858" stroke-linecap="round" stroke-linejoin="round"/><rect x="133.336" y="50.1119" width="2.42101" height="5.87959" transform="rotate(-8.89709 133.336 50.1119)" fill="#89E219"/><path d="M83.8576 86.1186C83.5266 87.5789 82.0946 90.73 79.0156 91.6523" stroke="white" stroke-width="6.5713" stroke-linecap="round" stroke-linejoin="round"/><path d="M128.471 78.1638C128.14 79.6241 126.708 82.7753 123.629 83.6975" stroke="white" stroke-width="6.5713" stroke-linecap="round" stroke-linejoin="round"/><circle cx="129.685" cy="135.057" r="22.6537" fill="#58CC02"/><path fill-rule="evenodd" clip-rule="evenodd" d="M126.814 157.605C125.56 158.808 124.252 159.958 122.892 161.051C120.12 159.599 117.553 157.981 115.224 156.249C109.536 152.022 105.161 147.043 102.702 142.025C100.253 137.025 99.5856 131.684 101.941 127.128C102.605 125.842 103.558 124.86 104.773 124.237C105.955 123.631 107.232 123.442 108.45 123.465C110.807 123.508 113.436 124.359 115.88 125.283C117.058 125.728 118.151 126.172 119.226 126.608C120.61 127.17 121.965 127.72 123.433 128.246C125.923 129.138 128.083 129.697 129.852 129.697C133.755 129.697 137.115 128.565 139.864 126.035C141.885 124.174 143.687 121.454 145.093 117.612C144.894 121.658 144.283 125.622 143.295 129.455C143.245 129.503 143.194 129.55 143.143 129.597C139.363 133.077 134.769 134.539 129.852 134.539C127.211 134.539 124.399 133.735 121.8 132.804C120.344 132.283 118.726 131.629 117.195 131.011L117.195 131.011C116.113 130.574 115.075 130.155 114.168 129.812C111.728 128.889 109.797 128.332 108.362 128.306C107.684 128.294 107.256 128.405 106.982 128.546C106.74 128.67 106.484 128.883 106.242 129.351C104.836 132.071 105 135.708 107.051 139.895C109.092 144.063 112.886 148.479 118.112 152.363C120.704 154.289 123.623 156.066 126.814 157.605Z" fill="#43C000"/><path d="M93.8854 142.321L90.2539 136.441L92.8478 127.622L96.4794 126.238H102.532C102.947 126.238 104.665 127.506 105.472 128.141V133.501L104.088 138.689L100.63 145.261L93.8854 142.321Z" fill="#58CC02"/><path d="M61.0288 128.239C63.718 129.849 69.7029 132.117 78.5223 132.117C87.3417 132.117 100.657 121.223 104.283 128.239C109.349 138.04 97.7538 154.011 78.5223 161.571C69.0928 165.124 59.3571 163.052 55.668 161.571" stroke="#43C000" stroke-width="4.84201" stroke-linecap="round" stroke-linejoin="round"/><path d="M145.075 118.456C146.977 125.028 145.421 127.449 143.173 129.524L143 127.795L143.692 123.298C143.922 122.376 144.522 120.117 145.075 118.456Z" fill="#43C000"/><circle cx="76.9376" cy="76.4348" r="4.49616" fill="white"/><circle cx="123.975" cy="68.48" r="4.1503" fill="white"/><path fill-rule="evenodd" clip-rule="evenodd" d="M56.9734 85.04C56.4087 78.5678 59.671 72.5291 65.0005 69.337C67.9709 70.7559 70.023 73.7881 70.023 77.2995C70.023 82.1703 66.0744 86.1189 61.2036 86.1189C59.6708 86.1189 58.2292 85.7278 56.9734 85.04Z" fill="white"/><path fill-rule="evenodd" clip-rule="evenodd" d="M104.52 74.2872C104.383 68.4001 107.741 63.0435 112.91 60.5257C115.762 61.7878 117.751 64.6424 117.751 67.9617C117.751 72.4505 114.112 76.0894 109.624 76.0894C107.69 76.0894 105.915 75.4144 104.52 74.2872Z" fill="white"/><path fill-rule="evenodd" clip-rule="evenodd" d="M107.527 117.22C106.808 117.952 105.858 118.468 104.768 118.643C102.21 119.052 99.7668 117.43 99.1509 114.914L97.4492 107.964C102.517 108.468 106.609 112.286 107.527 117.22Z" fill="#FFB8D1"/><path d="M51.7773 97.5378L81.0875 106.373L80.6767 107.736C79.5189 111.577 75.467 113.752 71.6265 112.594L56.2241 107.951C52.3836 106.793 50.2088 102.741 51.3665 98.9007L51.7773 97.5378Z" fill="#89E219"/><rect opacity="0.62" x="148.188" y="40.5219" width="9.25334" height="9.25334" rx="1.38343" transform="rotate(-45 148.188 40.5219)" fill="#14C3FB"/><rect opacity="0.5" x="79.0156" y="6.54309" width="9.25334" height="9.25334" rx="1.38343" transform="rotate(-45 79.0156 6.54309)" fill="#FF68D5"/><rect opacity="0.5" x="2.57812" y="16.9187" width="16.8945" height="16.8945" rx="4.49616" transform="rotate(-45 2.57812 16.9187)" fill="#14C3FB"/><rect opacity="0.68" y="45.8401" width="8.6918" height="8.6918" rx="1.38343" transform="rotate(-45 0 45.8401)" fill="#FFC200"/><rect opacity="0.5" x="139.566" y="25.5653" width="6.2987" height="6.2987" rx="1.38343" transform="rotate(-45 139.566 25.5653)" fill="#FFC200"/><path d="M89.9414 189.377C87.547 195.435 86.0817 199.137 82.1191 202.659" stroke="#F49000" stroke-width="14.6103" stroke-linecap="round"/><path d="M90.9063 189.377C93.3007 195.435 94.766 199.137 98.7286 202.659" stroke="#F49000" stroke-width="14.6103" stroke-linecap="round"/></svg>
